client/filepreviewer/pdfjs/web/images/altText_warning.svg

<svg width="17" height="16" viewBox="0 0 17 16" fill="none" xmlns="http://www.w3.org/2000/svg">
    <path fill-rule="evenodd" clip-rule="evenodd" d="M8.78182 2.63903C8.58882 2.28803 8.25782 2.25003 8.12482 2.25003C7.99019 2.24847 7.85771 2.28393 7.74185 2.35253C7.62599 2.42113 7.5312 2.52023 7.46782 2.63903L1.97082 12.639C1.90673 12.7528 1.87406 12.8816 1.87617 13.0122C1.87828 13.1427 1.91509 13.2704 1.98282 13.382C2.04798 13.4951 2.14207 13.5888 2.25543 13.6535C2.36879 13.7182 2.49732 13.7515 2.62782 13.75H13.6218C13.7523 13.7515 13.8809 13.7182 13.9942 13.6535C14.1076 13.5888 14.2017 13.4951 14.2668 13.382C14.3346 13.2704 14.3714 13.1427 14.3735 13.0122C14.3756 12.8816 14.3429 12.7528 14.2788 12.639L8.78182 2.63903ZM6.37282 2.03703C6.75182 1.34603 7.43882 1.00003 8.12482 1.00003C8.48341 0.997985 8.83583 1.09326 9.14454 1.2757C9.45325 1.45814 9.70668 1.72092 9.87782 2.03603L15.3748 12.036C16.1078 13.369 15.1438 15 13.6228 15H2.62782C1.10682 15 0.141823 13.37 0.875823 12.037L6.37282 2.03703ZM8.74982 9.06203C8.74982 9.22779 8.68397 9.38676 8.56676 9.50397C8.44955 9.62118 8.29058 9.68703 8.12482 9.68703C7.95906 9.68703 7.80009 9.62118 7.68288 9.50397C7.56566 9.38676 7.49982 9.22779 7.49982 9.06203V5.62503C7.49982 5.45927 7.56566 5.3003 7.68288 5.18309C7.80009 5.06588 7.95906 5.00003 8.12482 5.00003C8.29058 5.00003 8.44955 5.06588 8.56676 5.18309C8.68397 5.3003 8.74982 5.45927 8.74982 5.62503V9.06203ZM7.74982 12L7.49982 11.75V11L7.74982 10.75H8.49982L8.74982 11V11.75L8.49982 12H7.74982Z" fill="black"/>
</svg>

<svg xmlns="http://www.w3.org/2000/svg" width="17" height="16" fill="none"><path fill="#000" fill-rule="evenodd" d="M8.782 2.639a.735.735 0 0 0-.657-.389.735.735 0 0 0-.657.389l-5.497 10a.736.736 0 0 0 .012.743.735.735 0 0 0 .645.368h10.994a.734.734 0 0 0 .645-.368.735.735 0 0 0 .012-.743l-5.497-10Zm-2.41-.602A1.979 1.979 0 0 1 8.126 1a1.982 1.982 0 0 1 1.753 1.036l5.497 10c.733 1.333-.231 2.964-1.752 2.964H2.628C1.107 15 .142 13.37.876 12.037l5.497-10ZM8.75 9.062a.625.625 0 0 1-1.25 0V5.625a.625.625 0 1 1 1.25 0v3.437ZM7.75 12l-.25-.25V11l.25-.25h.75l.25.25v.75L8.5 12h-.75Z" clip-rule="evenodd"/></svg>
